public/assets/telephone.svg

<svg width="51" height="51" viewBox="0 0 51 51" fill="none" xmlns="http://www.w3.org/2000/svg">
<path d="M44.7612 8.93074L44.6929 8.88811L36.0674 4.63867L26.7577 17.0517L31.0409 22.763C30.9127 24.9169 29.9993 26.949 28.4736 28.4747C26.9478 30.0004 24.9157 30.9138 22.7618 31.0419L17.0506 26.7587L4.6377 36.0683L8.85177 44.6217L8.88723 44.6939L8.92996 44.762C9.15485 45.1244 9.46873 45.4231 9.84173 45.6299C10.2147 45.8366 10.6344 45.9444 11.0609 45.9431H13.2866C17.575 45.9431 21.8214 45.0984 25.7833 43.4573C29.7453 41.8162 33.3452 39.4108 36.3776 36.3785C39.4099 33.3461 41.8153 29.7462 43.4564 25.7842C45.0975 21.8223 45.9421 17.5759 45.9421 13.2875V11.0617C45.9435 10.6352 45.8357 10.2155 45.629 9.84252C45.4222 9.46952 45.1235 9.15563 44.7612 8.93074ZM42.7546 13.2875C42.7546 29.5362 29.5353 42.7556 13.2866 42.7556H11.4856L8.6661 37.0317L17.0512 30.7429L21.7196 34.2441H22.2508C25.4305 34.2405 28.4789 32.9758 30.7272 30.7275C32.9756 28.4791 34.2402 25.4307 34.2438 22.2511V21.7199L30.7426 17.0516L37.0308 8.66698L42.7546 11.487V13.2875Z" fill="#A9A9A9"/>
</svg>

<svg width="51" height="51" fill="none" xmlns="http://www.w3.org/2000/svg"><path d="m44.761 8.93-.068-.042-8.626-4.25-9.31 12.414 4.284 5.711a8.818 8.818 0 0 1-8.28 8.279l-5.71-4.283-12.413 9.31 4.214 8.553.035.072.043.068a2.499 2.499 0 0 0 2.13 1.181h2.227a32.655 32.655 0 0 0 32.655-32.655v-2.226a2.498 2.498 0 0 0-1.18-2.131zm-2.006 4.357c0 16.25-13.22 29.469-29.468 29.469h-1.801l-2.82-5.724 8.385-6.29 4.669 3.502h.53a12.007 12.007 0 0 0 11.994-11.993v-.531l-3.501-4.668 6.288-8.385 5.724 2.82v1.8z" fill="#A9A9A9"/></svg>
